resources/svg/fullscreen-fill.svg

<svg xmlns="http://www.w3.org/2000/svg" viewBox="0 0 24 24" fill="currentColor">
    <g>
        <path fill="none" d="M0 0h24v24H0z"/>
        <path d="M16 3h6v6h-2V5h-4V3zM2 3h6v2H4v4H2V3zm18 16v-4h2v6h-6v-2h4zM4 19h4v2H2v-6h2v4z"/>
    </g>
</svg>

<svg fill="currentColor" viewBox="0 0 24 24" xmlns="http://www.w3.org/2000/svg"><path d="M16 3H22V9H20V5H16V3ZM2 3H8V5H4V9H2V3ZM20 19V15H22V21H16V19H20ZM4 19H8V21H2V15H4V19Z"/></svg>
